!!!COM: Frescobaldi, Girolamo
!!!CDT: 1583///-1643
!!!ONM: No. 31
!!!OTL: No. 31: Canzon Prima &agrave; 4. Due Canti e Due Bassi
!!!OPR: Canzoni da sonare a una, due, tre et quattro, libro primo
!!!PPP: Venezia
!!!PDT: 1634
!!!URL: http://icking-music-archive.org/ByComposer/Frescobaldi.html
!!!ONB: Andrea Friggi, ed.
**kern	**kern	**kern	**kern	**kern
!Basso ad Organo	!Basso Secondo	!Basso Primo	!Canto Secondo	!Canto Primo
*staff5	*staff4	*staff3	*staff2	*staff1
*Icello	*Icello	*Icello	*Ivioln	*Ivioln
*clefF4	*clefF4	*clefF4	*clefG2	*clefG2
*k[b-]	*k[b-]	*k[b-]	*k[b-]	*k[b-]
*met(C)	*met(C)	*met(C)	*met(C)	*met(C)
*M4/4	*M4/4	*M4/4	*M4/4	*M4/4
*MM120	*MM120	*MM120	*MM120	*MM120
=1-	=1-	=1-	=1-	=1-
2.F\	2.F\	1r	1r	1r
4G\	4G\	.	.	.
=2	=2	=2	=2	=2
2A\	2A\	1r	1r	1r
4B-\	4B-\	.	.	.
4A\	4A\	.	.	.
=3	=3	=3	=3	=3
2G\	2G\	1r	1r	1r
2C/	2C/	.	.	.
=4	=4	=4	=4	=4
4F\	4F\	1r	1r	1r
4E\	4E\	.	.	.
4D\	4D\	.	.	.
4C/	4C/	.	.	.
=5	=5	=5	=5	=5
2BB-/	2BB-/	1r	1r	1r
4AA/	4AA/	.	.	.
4BB-/	4BB-/	.	.	.
=6	=6	=6	=6	=6
2C/	2C/	1r	1r	4r
.	.	.	.	4cc\
2FF/	2FF/	.	.	8a\L
.	.	.	.	8ff\
.	.	.	.	8ee\
.	.	.	.	8dd\J
=7	=7	=7	=7	=7
2.F\	1r	2.F\	1r	8cc\L
.	.	.	.	8dd\
.	.	.	.	8b-\
.	.	.	.	8cc\J
.	.	.	.	8a\L
.	.	.	.	8aa\
4G\	.	4G\	.	8gg\
.	.	.	.	8ff\J
=8	=8	=8	=8	=8
2A\	1r	2A\	1r	4ee\
.	.	.	.	8ff\L
.	.	.	.	8ee\J
4B-\	.	4B-\	.	4dd\
4A\	.	4A\	.	[4cc\
=9	=9	=9	=9	=9
2G\	2r	2G\	1r	4cc\]
.	.	.	.	4bn\
2C/	4r	2C/	.	2cc\
.	4C/	.	.	.
=10	=10	=10	=10	=10
2AA/	8AA/L	1r	2.cc\	1r
.	8F/	.	.	.
.	8E/	.	.	.
.	8D/J	.	.	.
4C/	8C/L	.	.	.
.	8D/	.	.	.
4BB-/	8BB-/	.	4dd\	.
.	8C/J	.	.	.
=11	=11	=11	=11	=11
2AA/	8AA\L	1r	2ee\	1r
.	8A\	.	.	.
.	8c\	.	.	.
.	8A\J	.	.	.
4D\	8d\L	.	4ff\	.
.	8D\	.	.	.
4E\	8E\	.	4ee\	.
.	8F\J	.	.	.
=12	=12	=12	=12	=12
1G	2G\	2r	2dd\	1r
.	2GG/	4r	2gg\	.
.	.	4G\	.	.
=13	=13	=13	=13	=13
2C/	2C/	8E\L	8r	1r
.	.	8c\	8ee\L	.
.	.	8B-\	8dd\	.
.	.	8A\J	8cc\J	.
4.G\	2r	4G\	[2dd\	.
.	.	8A\L	.	.
8G\	.	8G\J	.	.
=14	=14	=14	=14	=14
4F\	1r	4F\	4dd\]	1r
4E\	.	4E\	4ee\	.
2D\	.	2D\	4ff\	.
.	.	.	8ee\L	.
.	.	.	8dd\J	.
=15	=15	=15	=15	=15
2C/	1r	2C/	4ee\	2.cc\
.	.	.	4cc\	.
2FF/	.	2F\	8a\L	.
.	.	.	8ff\	.
.	.	.	8ee\	4dd\
.	.	.	8dd\J	.
=16	=16	=16	=16	=16
2C/	1r	1r	8cc\L	2ee\
.	.	.	8dd\	.
.	.	.	8b-\	.
.	.	.	8cc\J	.
4D\	.	.	4a/	4ff\
8E\L	.	.	[4cc\	4ee\
8F\J	.	.	.	.
=17	=17	=17	=17	=17
2G\	1r	1r	4cc\]	2dd\
.	.	.	8b-/L	.
.	.	.	8a/J	.
2GG/	.	.	8b-/L	2gg\
.	.	.	8b-/	.
.	.	.	8a/	.
.	.	.	8g/J	.
=18	=18	=18	=18	=18
4AA/	1r	1r	8a/L	2cc\
.	.	.	8b-/J	.
4EE/	.	.	2cc\	.
2GG/	.	.	.	2dd\
.	.	.	4bn\	.
=19	=19	=19	=19	=19
2C/	2.C/	4r	1cc	2ee\
.	.	4C/	.	.
4AA/	.	8AA/L	.	2r
.	.	8F/	.	.
4D\	4D\	8E/	.	.
.	.	8D/J	.	.
=20	=20	=20	=20	=20
4C/	2E\	8C/L	1r	1r
.	.	8D/	.	.
4BB-/	.	8BB-/	.	.
.	.	8C/J	.	.
4AA/	4F\	4AA/	.	.
4C/	4E\	4C/	.	.
=21	=21	=21	=21	=21
2D\	2D\	8D/L	1r	2r
.	.	8C/	.	.
.	.	8BB-/	.	.
.	.	8AA/J	.	.
2GG/	2G\	2GG/	.	4r
.	.	.	.	4g/
=22	=22	=22	=22	=22
1C	1C	1C	2.cc\	8e/L
.	.	.	.	8cc/
.	.	.	.	8b-/
.	.	.	.	8a/J
.	.	.	.	8g/L
.	.	.	.	8a/
.	.	.	4dd\	8f/
.	.	.	.	8g/J
=23	=23	=23	=23	=23
2c\	1r	1r	2ee\	8e\L
.	.	.	.	8ee\
.	.	.	.	8gg\
.	.	.	.	8ee\J
2F\	.	.	4ff\	8aa\L
.	.	.	.	16a\L
.	.	.	.	16b-\JJ
.	.	.	4ee\	8cc\L
.	.	.	.	8a\J
=24	=24	=24	=24	=24
2G\	4r	1r	4dd\	4.bn\
.	4G\	.	2gg\	.
.	.	.	.	16a/LL
.	.	.	.	16b/JJ
2C/	8E\L	.	.	2cc\
.	8c\	.	.	.
.	8B-\	.	4cc\	.
.	8A\J	.	.	.
=25	=25	=25	=25	=25
4G\	8G\L	1r	4dd\	1r
.	8A\	.	.	.
4F\	8F\	.	2dd\	.
.	8G\J	.	.	.
4E\	4E\	.	.	.
4AA/	4AA/	.	4cc#\	.
=26	=26	=26	=26	=26
2D\	2D\	1r	8dd\L	1r
.	.	.	8ee\J	.
.	.	.	2ff\	.
2C/	2C/	.	.	.
.	.	.	4ee\	.
=27	=27	=27	=27	=27
2F\	2FF/	4r	1ff	2.f/
.	.	4F\	.	.
4D\	2r	8D\L	.	.
.	.	8B-\	.	.
4E\	.	8A\	.	4g/
.	.	8G\J	.	.
=28	=28	=28	=28	=28
4F\	1r	8F\L	1r	2a/
.	.	8G\	.	.
4E\	.	8E\	.	.
.	.	8F\J	.	.
4D\	.	8D\L	.	4b-\
.	.	8E\J	.	.
4F\	.	4F\	.	4a/
=29	=29	=29	=29	=29
2C/	1r	8C/L	2r	2g/
.	.	8D/	.	.
.	.	8C/	.	.
.	.	8BB-/J	.	.
2AA/	.	2AA/	4r	2cc\
.	.	.	4ff\	.
=30	=30	=30	=30	=30
4BB-/	1r	4BB-/	8dd\L	2f/
.	.	.	8bb-\	.
4C/	.	4C/	8aa\	.
.	.	.	8gg\J	.
4D\	.	4D\	8ff\L	2r
.	.	.	8gg\	.
4C/	.	4C/	8ee\	.
.	.	.	8ff\J	.
=31	=31	=31	=31	=31
2G\	4r	2G\	8dd\L	2.g/
.	.	.	8dd\	.
.	4G\	.	8ee\	.
.	.	.	8ff\J	.
2C/	8E\L	2C/	2gg\	.
.	8c\	.	.	.
.	8B-\	.	.	4a/
.	8A\J	.	.	.
=32	=32	=32	=32	=32
4G\	8G\L	2r	2r	2b-\
.	8A\	.	.	.
4F\	8F\	.	.	.
.	8G\J	.	.	.
4E\	8E/L	4r	4r	4cc\
.	8F/	.	.	.
8G/L	8G/	4G\	4gg\	4b-\
8GG/J	8GG/J	.	.	.
=33	=33	=33	=33	=33
2.AA/	2.AA/	8E\L	8cc\L	2.a/
.	.	8A\	8ff\	.
.	.	8G\	8ee\	.
.	.	8F\J	8dd\J	.
.	.	8E\L	8cc\L	.
.	.	8F\	8dd\	.
4BB-/	4BB-/	8D\	8b-\	4dd\
.	.	8E\J	8cc\J	.
=34	=34	=34	=34	=34
2FF/	2FF/	2F\	8a/L	8cc\L
.	.	.	8b-/J	16dd\L
.	.	.	.	16ee\JJ
.	.	.	2cc\	8ff\L
.	.	.	.	8aa\J
2GG/	2GG/	4r	.	2gg\
.	.	4G\	4bn\	.
=35	=35	=35	=35	=35
1C	1C	1C	1cc	1gg
=36	=36	=36	=36	=36
1c	1r	1r	1r	2r
.	.	.	.	[2g/
=37	=37	=37	=37	=37
2B-\	1r	1r	1r	4g/]
.	.	.	.	4g/
2A\	.	.	.	2a/
=38	=38	=38	=38	=38
1G	1r	1r	2r	2.b-\
.	.	.	[2dd\	.
.	.	.	.	8a/L
.	.	.	.	8g/J
=39	=39	=39	=39	=39
2F\	1r	1r	4dd\]	4a/
.	.	.	4dd\	2dd\
2E\	.	.	2ee\	.
.	.	.	.	4cc#\
=40	=40	=40	=40	=40
1D	1r	1r	2.ff\	1dd
.	.	.	8ee\L	.
.	.	.	8dd\J	.
=41	=41	=41	=41	=41
2.C/	1r	1r	2ee\	1r
.	.	.	[2gg\	.
4BB-/	.	.	.	.
=42	=42	=42	=42	=42
2AA/	1r	1r	2gg\]	4r
.	.	.	.	4cc\
2AA/	.	.	2ff#\	4cc\
.	.	.	.	4cc\
=43	=43	=43	=43	=43
2GG/	1r	4r	2gg\	4b-\
.	.	4G\	.	8g/L
.	.	.	.	8a/J
2G\	.	4G\	2r	8b-\L
.	.	.	.	8cc\
.	.	4G\	.	8dd\
.	.	.	.	8ee\J
=44	=44	=44	=44	=44
4F\	1r	4F\	4r	2ff\
8D\L	.	8D\L	4dd\	.
8E\J	.	8E\J	.	.
4F\	.	4F\	4dd\	2r
4D\	.	4D\	4dd\	.
=45	=45	=45	=45	=45
2E-\	1r	2E-\	4b-\	4r
.	.	.	8g/L	4gg\
.	.	.	8a/J	.
2BB-/	.	2BB-/	8b-\L	4dd\
.	.	.	8cc\	.
.	.	.	8dd\	8ff\L
.	.	.	8ee\J	8ee\J
=46	=46	=46	=46	=46
4D\	2r	1r	4ff\	4dd\
4E\	.	.	4ee\	4cc\
2G\	4r	.	2dd\	4cc\
.	4G\	.	.	4bn\
=47	=47	=47	=47	=47
4C/	4C/	1r	2ee\	2cc\
4c\	8c\L	.	.	.
.	8B-\J	.	.	.
4A\	4A\	.	2r	2r
4G\	[4G\	.	.	.
=48	=48	=48	=48	=48
2D\	4G\]	4r	1r	1r
.	8F#\L	4D\	.	.
.	8E\J	.	.	.
4D\	2F#\	4D\	.	.
4D\	.	4D\	.	.
=49	=49	=49	=49	=49
4BB-/	1r	4BB-/	4r	2r
4GG/	.	8GG/L	4gg\	.
.	.	8AA/J	.	.
4BB-/	.	8BB-/L	4dd\	4r
.	.	8C/	.	.
4D\	.	8D/	8ff\L	4dd\
.	.	8E/J	8ee\J	.
=50	=50	=50	=50	=50
4.F\	1r	4.F\	4dd\	4a/
.	.	.	2cc\	8aa\L
8E\	.	8E\	.	8gg\J
4D\	.	4D\	.	4ff\
4GG/	.	4GG/	4bn\	8ee\L
.	.	.	.	8dd\J
=51	=51	=51	=51	=51
2C/	4r	1C	2cc\	2ee\
.	4C/	.	.	.
4C/	4C/	.	2r	2r
4C/	4C/	.	.	.
=52	=52	=52	=52	=52
4BB-/	4BB-/	1r	4r	2r
4D\	8D\L	.	4dd\	.
.	8E\J	.	.	.
2F\	8F\L	.	4a/	4r
.	8G\	.	.	.
.	8A\	.	4ff\	4cc\
.	8B-\J	.	.	.
=53	=53	=53	=53	=53
4.c\	4.c\	1r	8ee\L	4g/
.	.	.	8ff\	.
.	.	.	8ee\	2gg\
8B-\	8B-\	.	8dd\J	.
2A\	2A\	.	8cc\L	.
.	.	.	8b-\	.
.	.	.	8cc\	4ff#\
.	.	.	8a\J	.
=54	=54	=54	=54	=54
2G\	2G\	4r	2b-\	2gg\
.	.	4G\	.	.
4C/	2r	4C/	4r	2r
8D\L	.	8D\L	4ff\	.
8E\J	.	8E\J	.	.
=55	=55	=55	=55	=55
4F\	1r	4F\	4cc\	2r
4D\	.	4D\	4.ff\	.
4AA/	.	4AA/	.	4r
.	.	.	8ff\L	.
8C/L	.	8C/L	8ee\	4cc\
8BB-/J	.	8BB-/J	8dd\J	.
=56	=56	=56	=56	=56
2AA/	2r	8AA/L	4ee\	4cc\
.	.	8C/	.	.
.	.	8BB-/	4ff#\	4cc\
.	.	8AA/J	.	.
2GG/	4r	2GG/	2gg\	4b-\
.	4G\	.	.	8g/L
.	.	.	.	8a/J
=57	=57	=57	=57	=57
2G\	4G\	1r	4r	8b-\L
.	.	.	.	8cc\
.	4G\	.	4dd\	8dd\
.	.	.	.	8ee\J
4F\	4F\	.	4dd\	2ff\
8D\L	8D\L	.	4dd\	.
8E\J	8E\J	.	.	.
=58	=58	=58	=58	=58
2F\	2F\	4r	4cc\	4r
.	.	4F\	8a/L	4aa\
.	.	.	8b-/J	.
2C/	4r	4.C/	8cc\L	4ee\
.	.	.	8dd\	.
.	4C/	.	8ee\	[4gg\
.	.	8C/	8cc\J	.
=59	=59	=59	=59	=59
2GG/	8GG/L	2G\	4dd\	8gg\L]
.	8BB-/	.	.	8g\
.	8AA/	.	4ee\	8cc\
.	8GG/J	.	.	8b-\J
2D\	2D\	2D\	2ff#\	2a/
=60	=60	=60	=60	=60
1GG	1GG	1G	1gg	1bn
=61	=61	=61	=61	=61
4r	4r	4r	4r	4r
4C/	4C/	4C/	8ee\L	8gg\L
.	.	.	8ff\J	8ff\J
4C/	4C/	4C/	4gg\	4ee\
4FF/	4FF/	4F\	4aa\	4ff\
=62	=62	=62	=62	=62
2.C/	2C/	2C/	2gg\	2ee\
.	2r	2r	4r	4r
4C/	.	.	4ee\	4gg\
=63	=63	=63	=63	=63
4D\	1r	1r	4dd\	4ff\
4E\	.	.	2cc\	4ee\
4F\	.	.	.	4.dd\
4G\	.	.	4bn\	.
.	.	.	.	8dd\
=64	=64	=64	=64	=64
2C/	2r	2r	2cc\	2ee\
4r	4r	4r	4r	4r
4FF/	4FF/	4F\	4ff\	4cc\
=65	=65	=65	=65	=65
4FF/	4FF/	4F\	4cc\	4a/
4BB-/	4BB-/	4BB-/	4b-\	4dd\
2FF/	2FF/	2F\	2a/	2cc\
=66	=66	=66	=66	=66
2FF/	1r	1r	4r	4r
.	.	.	4ff\	4aa\
4C/	.	.	4ee\	4gg\
4D\	.	.	4dd\	4ff\
=67	=67	=67	=67	=67
2AA/	1r	2r	4dd\	4.ee\
.	.	.	4cc#\	.
.	.	.	.	8ee\
2D\	.	4r	2dd\	2dd\
.	.	4D\	.	.
=68	=68	=68	=68	=68
2G\	1r	4G\	1r	1r
.	.	8G\L	.	.
.	.	8G\J	.	.
4F\	.	4F\	.	.
8D\L	.	8D\L	.	.
8F\J	.	8F\J	.	.
=69	=69	=69	=69	=69
4E-\	1r	8E-\L	4r	1r
.	.	8D\	.	.
4C/	.	8C\	4g/	.
.	.	8E-\J	.	.
2BB-/	.	2BB-/	4dd\	.
.	.	.	8dd\L	.
.	.	.	8dd\J	.
=70	=70	=70	=70	=70
4.F\	2r	1r	4cc\	4r
.	.	.	8a\L	4cc\
8A\	.	.	8cc\J	.
4G\	4r	.	8b-/L	4gg\
.	.	.	8a/	.
4GG/	4GG/	.	8g/	8gg\L
.	.	.	8b-/J	8gg\J
=71	=71	=71	=71	=71
2D\	4D\	1r	4a/	4ff\
.	8D\L	.	4bn\	8dd\L
.	8D\J	.	.	8ff\J
4C/	4C/	.	2cc\	8ee-\L
.	.	.	.	8dd\
8AA/L	8AA/L	.	.	8cc\
8C/J	8C/J	.	.	8ee-\J
=72	=72	=72	=72	=72
4BB-/	8BB-/L	1r	4dd\	2dd\
.	8AA/	.	.	.
8GG/L	8GG/	.	2dd\	.
8BB-/J	8BB-/J	.	.	.
2AA/	2AA/	.	.	4aa\
.	.	.	4cc#\	8ee\L
.	.	.	.	8gg\J
=73	=73	=73	=73	=73
2D\	2D\	4r	2dd\	8ff#\L
.	.	.	.	8dd\
.	.	4D\	.	8a\
.	.	.	.	8cc\J
4G\	4r	4G\	2r	8bn\L
.	.	.	.	8dd\
4GG/	4GG/	8G\L	.	8cc\
.	.	8G\J	.	8b\J
=74	=74	=74	=74	=74
2C/	4C/	4E\	4r	1cc
.	8C/L	8C\L	4g/	.
.	8C/J	8E\J	.	.
4AA/	4AA/	2F\	4cc\	.
8FF/L	8FF/L	.	8cc\L	.
8AA/J	8AA/J	.	8cc\J	.
=75	=75	=75	=75	=75
2GG/	2GG/	2r	4b-\	1r
.	.	.	8g/L	.
.	.	.	8b-/J	.
4FF/	2FF/	4F\	4a/	.
4F\	.	8F\L	4aa\	.
.	.	8F\J	.	.
=76	=76	=76	=76	=76
4.G\	1r	4.G\	8gg\L	4r
.	.	.	8ff\	.
.	.	.	8ee\	4g/
8B-\	.	8B-\	8dd\J	.
2A\	.	8A\L	4ee\	4cc\
.	.	8c\	.	.
.	.	8B-\	4ff#\	8cc\L
.	.	8A\J	.	8cc\J
=77	=77	=77	=77	=77
4.G\	1r	4.G\	2gg\	4b-\
.	.	.	.	8g/L
8G\	.	8G\	.	8b-/J
4F\	.	4F\	4r	4a/
8D\L	.	8D\L	4dd\	[4dd\
8F\J	.	8F\J	.	.
=78	=78	=78	=78	=78
2E\	1r	2E\	4gg\	4dd\]
.	.	.	8gg\L	4cc#\
.	.	.	8gg\J	.
2D\	.	2D\	4ff\	2dd\
.	.	.	8dd\L	.
.	.	.	8ee\J	.
=79	=79	=79	=79	=79
2C/	4C/	1r	2ee\	2r
.	8C/L	.	.	.
.	8C/J	.	.	.
4.D\	4.D\	.	2dd\	4r
.	.	.	.	4dd\
8F\	8F\	.	.	.
=80	=80	=80	=80	=80
2E\	8E\L	1r	2r	4gg\
.	8G\	.	.	.
.	8F\	.	.	8gg\L
.	8E\J	.	.	8gg\J
2D\	4.D\	.	4f/	4ff\
.	.	.	8f/L	8dd\L
.	8D\	.	8f/J	8ff\J
=81	=81	=81	=81	=81
2C/	2C/	4r	4.g/	2ee\
.	.	4C/	.	.
.	.	.	8b-\	.
4F\	2r	4F\	8a/L	2r
.	.	.	8cc/	.
8F\L	.	8F\L	8b-/	.
8F\J	.	8F\J	8a/J	.
=82	=82	=82	=82	=82
4E\	1r	4E\	4g/	4r
8C\L	.	8C\L	2cc\	4cc\
8E\J	.	8E\J	.	.
2D\	.	2D\	.	4ff\
.	.	.	4bn\	8ff\L
.	.	.	.	8ff\J
=83	=83	=83	=83	=83
2C/	4r	2C/	2cc\	4ee\
.	4C/	.	.	8cc\L
.	.	.	.	8ee\J
4G\	4G\	2r	2r	8dd\L
.	.	.	.	8cc\
8G\L	8G\L	.	.	8dd\
8G\J	8G\J	.	.	8ee\J
=84	=84	=84	=84	=84
4F\	4F\	1r	2r	8ff\L
.	.	.	.	8cc\J
8D\L	8D\L	.	.	4ff\
8F\J	8F\J	.	.	.
2E\	8E\L	.	4cc\	4gg\
.	8G\	.	.	.
.	8F\	.	8cc\L	[4cc\
.	8E\J	.	8cc\J	.
=85	=85	=85	=85	=85
2D\	4D\	1r	4.dd\	4cc\]
.	4D\	.	.	4bn\
.	.	.	8ff\	.
2C/	2C/	.	8ee\L	2cc\
.	.	.	8gg\	.
.	.	.	8ff\	.
.	.	.	8ee\J	.
=86	=86	=86	=86	=86
2GG/	2G\	4GG/	8dd\L	1r
.	.	.	8g\J	.
.	.	8GG/L	4gg\	.
.	.	8GG/J	.	.
4.AA/	2r	4.AA/	4ff\	.
.	.	.	4ee\	.
8C/	.	8C/	.	.
=87	=87	=87	=87	=87
4BB-/	1r	8BB-/L	2dd\	4r
.	.	8AA/	.	.
8GG/L	.	8GG/	.	4g/
8BB-/J	.	8BB-/J	.	.
4AA/	.	4AA/	4cc\	4cc\
8GG/L	.	8GG/L	[4ff\	8cc\L
8FF/J	.	8FF/J	.	8cc\J
=88	=88	=88	=88	=88
2GG/	2r	2GG/	4ff\]	4b-\
.	.	.	4ee\	8g/L
.	.	.	.	8b-/J
4FF/	4F\	2FF/	2ff\	8a/L
.	.	.	.	8cc/
4F\	8F\L	.	.	8b-/
.	8F\J	.	.	8a/J
=89	=89	=89	=89	=89
4.G\	4.G\	1r	2dd\	8b-/L
.	.	.	.	8g/J
.	.	.	.	4dd\
8B-\	8B-\	.	.	.
2A\	8A\L	.	4r	2cc\
.	8c\	.	.	.
.	8B-\	.	4cc\	.
.	8A\J	.	.	.
=90	=90	=90	=90	=90
2G\	4G\	1r	4gg\	8r
.	.	.	.	8b-/L
.	8F\L	.	8gg\L	8a/
.	8E\J	.	8gg\J	8g/J
2D\	4.D\	.	4ff\	8a/L
.	.	.	.	8f/
.	.	.	8dd\L	8a/
.	8D\	.	8ff\J	8bn/J
=91	=91	=91	=91	=91
4C/	4C/	4r	8ee\L	4.cc\
.	.	.	8gg\	.
4FF/	4F\	4FF/	8ff\	.
.	.	.	8ee\J	8cc\
4BB-/	2BB-/	4BB-/	8dd\L	2b-\
.	.	.	8ff\	.
8BB-/L	.	8BB-/L	8ee\	.
8BB-/J	.	8BB-/J	8dd\J	.
=92	=92	=92	=92	=92
4AA/	1r	4AA/	4cc\	1r
8FF/L	.	8FF/L	8a\L	.
8AA/J	.	8AA/J	8cc\J	.
2GG/	.	8GG/L	2b-\	.
.	.	8AA/	.	.
.	.	8BB-/	.	.
.	.	8C/J	.	.
=93	=93	=93	=93	=93
4D\	1r	8D\L	2a/	4f/
.	.	8E\J	.	.
4F\	.	2F\	.	8f/L
.	.	.	.	8f/J
2C/	.	.	2g/	4.g/
.	.	4E\	.	.
.	.	.	.	8b-\
=94	=94	=94	=94	=94
2FF/	4r	2F\	4f/	8a/L
.	.	.	.	8cc/
.	4FF/	.	2ff\	8b-/
.	.	.	.	8a/J
2C/	4C/	2r	.	2g/
.	8C/L	.	4ee\	.
.	8C/J	.	.	.
=95	=95	=95	=95	=95
4BB-/	4BB-/	1r	2dd\	2r
8GG/L	8GG/L	.	.	.
8BB-/J	8BB-/J	.	.	.
2AA/	8AA/L	.	2cc\	4cc\
.	8C/	.	.	.
.	8BB-/	.	.	8cc\L
.	8AA/J	.	.	8cc\J
=96	=96	=96	=96	=96
4BB-/	4BB-/	2r	4r	4.dd\
4D\	4D\	.	4f/	.
.	.	.	.	8ff\
2C/	2C/	4r	4cc\	8ee\L
.	.	.	.	8gg\
.	.	4C/	8cc\L	8ff\
.	.	.	8cc\J	8ee\J
=97	=97	=97	=97	=97
2FF/	2FF/	4F\	4a/	2aa\
.	.	8F\L	2ff\	.
.	.	8F\J	.	.
2C/	2C/	2C/	.	2gg\
.	.	.	4ee\	.
=98	=98	=98	=98	=98
0FF	0FF	0F	0ff	0ff
==	==	==	==	==
*-	*-	*-	*-	*-
!!!ENC: Craig Stuart Sapp
!!!END: 2004/12/14/
